X: 28
T: the Drunken Landlady
R: reel
Z: 2012 John Chambers <jc@trillian.mit.edu>
B: "100 Essential Irish Session Tunes" 1995 Dave Mallinson, ed.
M: 4/4
L: 1/8
K: Edor
dc |\
"Em"BE~E2 "Bm"BAFA | "Em"BE~E2 "Bm"BAFB | "A"ABAF "D"D2AD | "Bm"FAAd BAFA |\
"Em"BE~E2 "Bm"BAFA | "Em"BAdA "Bm"BAFB | "A"A3B "Bm"dfec | "D"dBAF "Em"E2 :|
|: FA |\
"Em"Beed e2de | "Bm"f2af efdB | "A"ABAF "D"D2AD | FAAd "Bm"BAFA |\
"Em"Beed "C"e2de | "Bm"f2af "A"efdB | "D"A3B "Bm"dfec | "D"dBAF "Em"E2 :|

%%sep 2 1 500
%%sep 1 1 500

